icons/outline/grid-dots.svg

<svg xmlns="http://www.w3.org/2000/svg" width="24" height="24" viewBox="0 0 24 24" fill="none" stroke="currentColor" stroke-width="2" stroke-linecap="round" stroke-linejoin="round"><path d="M5 5m-1 0a1 1 0 1 0 2 0a1 1 0 1 0 -2 0"/><path d="M12 5m-1 0a1 1 0 1 0 2 0a1 1 0 1 0 -2 0"/><path d="M19 5m-1 0a1 1 0 1 0 2 0a1 1 0 1 0 -2 0"/><path d="M5 12m-1 0a1 1 0 1 0 2 0a1 1 0 1 0 -2 0"/><path d="M12 12m-1 0a1 1 0 1 0 2 0a1 1 0 1 0 -2 0"/><path d="M19 12m-1 0a1 1 0 1 0 2 0a1 1 0 1 0 -2 0"/><path d="M5 19m-1 0a1 1 0 1 0 2 0a1 1 0 1 0 -2 0"/><path d="M12 19m-1 0a1 1 0 1 0 2 0a1 1 0 1 0 -2 0"/><path d="M19 19m-1 0a1 1 0 1 0 2 0a1 1 0 1 0 -2 0"/></svg>

<svg xmlns="http://www.w3.org/2000/svg" width="24" height="24" fill="none" stroke="currentColor" stroke-linecap="round" stroke-linejoin="round" stroke-width="2"><path d="M4 5a1 1 0 1 0 2 0 1 1 0 1 0-2 0M11 5a1 1 0 1 0 2 0 1 1 0 1 0-2 0M18 5a1 1 0 1 0 2 0 1 1 0 1 0-2 0M4 12a1 1 0 1 0 2 0 1 1 0 1 0-2 0M11 12a1 1 0 1 0 2 0 1 1 0 1 0-2 0M18 12a1 1 0 1 0 2 0 1 1 0 1 0-2 0M4 19a1 1 0 1 0 2 0 1 1 0 1 0-2 0M11 19a1 1 0 1 0 2 0 1 1 0 1 0-2 0M18 19a1 1 0 1 0 2 0 1 1 0 1 0-2 0"/></svg>
